202404-ahaslides-april/assets/images/legal.svg

<svg width="17" height="17" viewBox="0 0 17 17" fill="none" xmlns="http://www.w3.org/2000/svg">
<g clip-path="url(#clip0_24275_149754)">
<path d="M7.6296 1.17773C7.82976 0.91845 8.22102 0.91845 8.42118 1.17773L9.64609 2.76446C9.77194 2.92748 9.98486 2.99666 10.1825 2.93875L12.1061 2.37504C12.4205 2.28293 12.737 2.5129 12.7465 2.84032L12.8048 4.844C12.8108 5.04985 12.9424 5.23097 13.1363 5.30028L15.0239 5.97492C15.3324 6.08516 15.4533 6.45726 15.2685 6.72775L14.138 8.38304C14.0218 8.5531 14.0218 8.77698 14.138 8.94704L15.2685 10.6023C15.4533 10.8728 15.3324 11.2449 15.0239 11.3552L13.1363 12.0298C12.9424 12.0991 12.8108 12.2802 12.8048 12.4861L12.7465 14.4898C12.737 14.8172 12.4205 15.0471 12.1061 14.955L10.1825 14.3913C9.98486 14.3334 9.77194 14.4026 9.64609 14.5656L8.42118 16.1523C8.22102 16.4116 7.82976 16.4116 7.6296 16.1523L6.40469 14.5656C6.27885 14.4026 6.06592 14.3334 5.86829 14.3913L3.94466 14.955C3.63032 15.0471 3.31379 14.8172 3.30426 14.4898L3.24595 12.4861C3.23995 12.2802 3.10836 12.0991 2.91444 12.0298L1.02685 11.3552C0.718398 11.2449 0.597494 10.8728 0.782235 10.6023L1.91279 8.94704C2.02894 8.77698 2.02894 8.5531 1.91279 8.38304L0.782236 6.72775C0.597495 6.45726 0.718398 6.08516 1.02684 5.97492L2.91444 5.30028C3.10836 5.23097 3.23995 5.04985 3.24595 4.844L3.30426 2.84032C3.31379 2.5129 3.63032 2.28293 3.94466 2.37504L5.86829 2.93875C6.06592 2.99666 6.27885 2.92748 6.40469 2.76446L7.6296 1.17773Z" fill="#348EF6"/>
<path fill-rule="evenodd" clip-rule="evenodd" d="M6.82386 9.68796L10.3981 6.1171C10.6174 5.89801 10.9727 5.8981 11.1919 6.11729C11.4112 6.33656 11.4112 6.69206 11.1919 6.91133L7.29484 10.8084C7.03469 11.0686 6.61291 11.0686 6.35276 10.8084L4.86122 9.3169C4.64092 9.09659 4.64155 8.73922 4.86263 8.5197C5.0826 8.30128 5.4378 8.3019 5.65701 8.52111L6.82386 9.68796Z" fill="white"/>
</g>
<defs>
<clipPath id="clip0_24275_149754">
<rect width="16" height="16" fill="white" transform="translate(0.0253906 0.665039)"/>
</clipPath>
</defs>
</svg>

<svg xmlns="http://www.w3.org/2000/svg" width="17" height="17" fill="none" viewBox="0 0 17 17">
  <g clip-path="url(#a)">
    <path fill="#348EF6" d="M7.63 1.178a.5.5 0 0 1 .791 0l1.225 1.586a.5.5 0 0 0 .536.175l1.924-.564a.5.5 0 0 1 .64.465l.059 2.004a.5.5 0 0 0 .331.456l1.888.675a.5.5 0 0 1 .245.753l-1.131 1.655a.5.5 0 0 0 0 .564l1.13 1.655a.5.5 0 0 1-.244.753l-1.888.675a.5.5 0 0 0-.331.456l-.059 2.004a.5.5 0 0 1-.64.465l-1.924-.564a.5.5 0 0 0-.536.175l-1.225 1.586a.5.5 0 0 1-.791 0l-1.225-1.586a.5.5 0 0 0-.537-.175l-1.923.564a.5.5 0 0 1-.64-.465l-.06-2.004a.5.5 0 0 0-.33-.456l-1.888-.675a.5.5 0 0 1-.245-.753l1.13-1.655a.5.5 0 0 0 0-.564L.783 6.728a.5.5 0 0 1 .245-.753L2.914 5.3a.5.5 0 0 0 .332-.456l.058-2.004a.5.5 0 0 1 .64-.465l1.924.564a.5.5 0 0 0 .537-.175L7.63 1.178Z"/>
    <path fill="#fff" fill-rule="evenodd" d="m6.824 9.688 3.574-3.57a.561.561 0 0 1 .794.793l-3.897 3.897a.666.666 0 0 1-.942 0L4.86 9.317a.563.563 0 0 1 .796-.796l1.167 1.167Z" clip-rule="evenodd"/>
  </g>
  <defs>
    <clipPath id="a">
      <path fill="#fff" d="M0 0h16v16H0z" transform="translate(.025 .665)"/>
    </clipPath>
  </defs>
</svg>
